dist/img/home/icons/1/Ideas (3)@4xу.svg

<svg xmlns="http://www.w3.org/2000/svg" viewBox="0 0 48.92 79.52"><defs><style>.cls-1{fill:#333;stroke:#fff;stroke-miterlimit:10;stroke-width:1.8px}</style></defs><g id="Слой_2" data-name="Слой 2"><g id="Слой_1-2" data-name="Слой 1"><g id="Ideas"><path class="cls-1" d="M48 24.46a23.43 23.43 0 01-4.77 14.23 38.59 38.59 0 00-8 23.49v9.11a7.33 7.33 0 01-7.33 7.33h-6.83a7.33 7.33 0 01-7.33-7.33v-9.11a39 39 0 00-8-23.46A23.51 23.51 0 017.78 7.86 23.54 23.54 0 0148 24.46zm-7.18 12.4A20.54 20.54 0 0024.16 3.92 20.66 20.66 0 003.92 24.27a20.34 20.34 0 004.19 12.62 42 42 0 018.64 24.73h15.42a41.68 41.68 0 018.67-24.76zm-8.63 34.43v-.47l-15.43-1.77v1.22L32.13 72a4.44 4.44 0 00.06-.71zm0-3.51v-3.14H16.76V66zm-1.89 7.08l-13-1.49a4.32 4.32 0 003.78 2.23h6.82a4.26 4.26 0 002.4-.74z"/><path class="cls-1" d="M42.58 24.46c0 .57 0 1.14-.07 1.69A1.51 1.51 0 0141 27.53h-.15a1.51 1.51 0 01-1.36-1.64c0-.47.06-.95.06-1.42a15.11 15.11 0 00-15.1-15.1 1.51 1.51 0 010-3 18.14 18.14 0 0118.13 18.09z"/><path d="M32.19 70.82v.47a4.44 4.44 0 01-.06.74l-15.37-1.76v-1.22zm.01-6.18v3.14l-15.44-1.77v-1.37H32.2zm-14.91 8.73l13 1.49a4.26 4.26 0 01-2.41.74h-6.81a4.32 4.32 0 01-3.78-2.23z" fill="#068887"/><path class="cls-1" d="M19.85 47.69a1.51 1.51 0 01-1 1.91 1.61 1.61 0 01-.48.08 1.52 1.52 0 01-1.43-1 44.94 44.94 0 00-7-13.21 18.83 18.83 0 01-1.69-2.68 1.5 1.5 0 01.64-2 1.52 1.52 0 012 .65 16.37 16.37 0 001.41 2.23 47.93 47.93 0 017.55 14.02z"/></g></g></g></svg>

<svg xmlns="http://www.w3.org/2000/svg" viewBox="0 0 48.92 79.52"><defs><style>.cls-1{fill:#333;stroke:#fff;stroke-miterlimit:10;stroke-width:1.8px;}.cls-2{fill:#068887;}</style></defs><title>Ideas (3)@4xу</title><g id="Слой_2" data-name="Слой 2"><g id="Слой_1-2" data-name="Слой 1"><g id="Ideas"><path class="cls-1" d="M48,24.46a23.43,23.43,0,0,1-4.77,14.23,38.59,38.59,0,0,0-8,23.49v9.11a7.33,7.33,0,0,1-7.33,7.33H21.07a7.33,7.33,0,0,1-7.33-7.33V62.18a39,39,0,0,0-8-23.46A23.51,23.51,0,0,1,7.78,7.86,23.54,23.54,0,0,1,48,24.46Zm-7.18,12.4A20.54,20.54,0,0,0,24.16,3.92,20.66,20.66,0,0,0,3.92,24.27,20.34,20.34,0,0,0,8.11,36.89a42,42,0,0,1,8.64,24.73H32.17A41.68,41.68,0,0,1,40.84,36.86ZM32.19,71.29v-.47L16.76,69.05v1.22L32.13,72A4.44,4.44,0,0,0,32.19,71.29Zm0-3.51V64.64H16.76V66ZM30.3,74.86l-13-1.49a4.32,4.32,0,0,0,3.78,2.23h6.82A4.26,4.26,0,0,0,30.3,74.86Z"/><path class="cls-1" d="M42.58,24.46c0,.57,0,1.14-.07,1.69A1.51,1.51,0,0,1,41,27.53h-.15a1.51,1.51,0,0,1-1.36-1.64c0-.47.06-.95.06-1.42a15.11,15.11,0,0,0-15.1-15.1,1.51,1.51,0,0,1,0-3A18.14,18.14,0,0,1,42.58,24.46Z"/><path class="cls-2" d="M32.19,70.82v.47a4.44,4.44,0,0,1-.06.74L16.76,70.27V69.05Z"/><polygon class="cls-2" points="32.2 64.64 32.2 67.78 16.76 66.01 16.76 64.64 32.2 64.64"/><path class="cls-2" d="M17.29,73.37l13,1.49a4.26,4.26,0,0,1-2.41.74H21.07A4.32,4.32,0,0,1,17.29,73.37Z"/><path class="cls-1" d="M19.85,47.69a1.51,1.51,0,0,1-1,1.91,1.61,1.61,0,0,1-.48.08,1.52,1.52,0,0,1-1.43-1,44.94,44.94,0,0,0-7-13.21,18.83,18.83,0,0,1-1.69-2.68,1.5,1.5,0,0,1,.64-2,1.52,1.52,0,0,1,2,.65,16.37,16.37,0,0,0,1.41,2.23A47.93,47.93,0,0,1,19.85,47.69Z"/></g></g></g></svg>
